!!!!SEGMENT: pl-lzu--m-15111--001-034_noskowski-zygmunt--spiewnik-dla-dzieci-op-34-34-pszczolki.krn
!!!cenid: 18xx:4731
!!!COM: Noskowski, Zygmunt
!!!COM-rismID: pe106604
!!!CDT: 1846/05/02-1909/07/23
!!!CNT: Polish
!!!GTL: Śpiewnik dla dzieci, op. 34
!!!OTL: 34. Pszczółki
!!!OMV: 034
!!!PDT: 1890
!!!AGN: Secular; Song; Children
!!!YEC: Copyright 2022 Narodowy Instytut Fryderyka Chopina (https://polishscores.org)
!!!YEM: License CC-BY-4.0 (https://creativecommons.org/licenses/by/4.0)
!!!SMS-siglum: PL-LŹu
!!!SMS-shelfmark: M 15111
!!!SMS-variant:
!!!SMS-altvar:
!!!SMS-shelfwork: 001-034 G
!!!NIFC-rismSourceID: 1001234040
!!!NIFC-rismChildID: 1001234040
!!!NIFC-islandoraID: pl-lzu:5455
!!!URL-pdf-islandora: https://repozytorium.nifc.pl/islandora/object/pl-lzu%3A5455/datastream/PDF/view
!!!URL-scan: https://polish.musicsources.pl/pl/lokalizacje/galeria/druki-muzyczne/23228/41 @EN{Scan on Polish Music Sources Website} @PL{Skany w portalu Dziedzictwo Muzyki Polskiej w otwartym dostępie}
!!!IIIF:
!!!ONB-nifc:
!!!AIN: 1 piano 1 vox
!!!key: B-
!!!OMD: Andante con moto.
**kern	**kern	**dynam	**kern	**text	**dynam
*part2	*part2	*part2	*part1	*part1	*part1
*staff3	*staff2	*staff2,3	*staff1	*staff1	*staff1
*I"[Piano]	*I"[Piano]	*	*I"[Voice]	*	*
*I'pf	*I'pf	*	*I'V	*	*
*Ipiano	*Ipiano	*	*Ivox	*	*
*ICklav	*ICklav	*	*ICvox	*	*
*IGacomp	*IGacomp	*	*IGsolo	*	*
*clefF4	*clefG2	*	*clefG2	*	*
*k[b-e-]	*k[b-e-]	*	*k[b-e-]	*	*
*B-:	*B-:	*	*B-:	*	*
*M2/4	*M2/4	*	*M2/4	*	*
=1	=1	=1	=1	=1	=1
*^	*	*	*	*	*
!	!	!LO:TX:a:i:t=Spokojnie.	!LO:DY:rj	!	!	!
(2D/	[2BB-\	(16B-/LL	pp	2r	.	.
.	.	16A/	.	.	.	.
.	.	16B-/	.	.	.	.
.	.	16Bn/JJ	.	.	.	.
.	.	16B-X/LL	.	.	.	.
.	.	16A/	.	.	.	.
.	.	16B-/	.	.	.	.
.	.	16Bn/JJ	.	.	.	.
=2	=2	=2	=2	=2	=2	=2
2E-/)	2BB-\]	16c/LL	.	2r	.	.
.	.	16Bn/	.	.	.	.
.	.	16c/	.	.	.	.
.	.	16c#X/JJ	.	.	.	.
.	.	16d/LL	.	.	.	.
.	.	16c#/	.	.	.	.
.	.	16cn/	.	.	.	.
.	.	16Bn/JJ	.	.	.	.
=3	=3	=3	=3	=3	=3	=3
(2D/	[2BB-\	16B-X/LL	.	2r	.	.
.	.	16A/	.	.	.	.
.	.	16B-/	.	.	.	.
.	.	16Bn/JJ	.	.	.	.
.	.	16B-X/LL	.	.	.	.
.	.	16A/	.	.	.	.
.	.	16B-/	.	.	.	.
.	.	16Bn/JJ)	.	.	.	.
!!LO:LB:g=original
=4	=4	=4	=4	=4	=4	=4
4E-/)	4BB-\]	(16c/LL	.	2r	.	.
.	.	16Bn/	.	.	.	.
.	.	16c/	.	.	.	.
.	.	16c#X/JJ	<	.	.	.
4r	4ryy	16d/LL	.	.	.	.
.	.	16c#/	.	.	.	.
.	.	16d/	.	.	.	.
.	.	16e-/JJ)	[	.	.	.
*v	*v	*	*	*	*	*
=5	=5	=5	=5	=5	=5
[2BB-/	(16fLL 16d/	p	(16f/LL	Brzę-	p
.	16B-X/	.	16g/JJ)	.	.
.	16f 16d/	.	(16f/LL	-czą	.
.	16B-/JJ	.	16g/JJ)	.	.
.	16fLL 16e-/	.	(16f/LL	pszczół-	.
.	16A/	.	16g/JJ)	.	.
.	16f 16e-/	.	(16f/LL	-ki	.
.	16A/JJ	.	16g/JJ)	.	.
=6	=6	=6	=6	=6	=6
2BB-/]	16fLL 16d/	.	8f/	nad	.
.	16B-/	.	.	.	.
.	16f 16d/	.	8dd\	li-	.
.	16B-/JJ	.	.	.	.
.	16fLL 16d/	.	(16ee-\LL	-pi-	.
.	16B-/	.	16dd\JJ)	.	.
.	16f 16d/	.	(16cc\LL	-ną,	.
.	16B-/JJ)	.	16b-,\JJ)	.	.
!!LO:PB:g=original
=7	=7	=7	=7	=7	=7
[2BB-/	(16gLL 16e-/	.	8g/	Pod	.
.	16B-/	.	.	.	.
.	16g 16e-/	.	(16g/LL	błę-	.
.	16B-/JJ	.	16a/JJ)	.	.
.	16gLL 16e-/	.	8b-\	-ki-	.
.	16B-/	.	.	.	.
.	16g 16e-/	.	(16cc\LL	-tnem	.
.	16B-/JJ	.	16dd\JJ)	.	.
=8	=8	=8	=8	=8	=8
2BB-/]	16gLL 16e-/	.	4cc\	nie-	.
.	16B-/	.	.	.	.
.	16g 16e-/	.	.	.	.
.	16B-/JJ	.	.	.	.
.	16gLL 16e-/	.	8g/	-bem,	.
.	16B-/	.	.	.	.
.	16g 16e-/	.	8r	.	.
.	16B-/JJ)	.	.	.	.
=9	=9	=9	=9	=9	=9
(4.C/	(16fLL 16e-/	.	(16b-/LL	Zno-	.
.	16A/	.	16a/JJ)	.	.
.	16f 16e-/	.	(16g/LL	-szą	.
.	16A/JJ	.	16f/JJ)	.	.
.	16e-LL 16A/	.	(16en/LL	w u-	.
.	16F/	.	16f/JJ)	.	.
8FF/)	16e- 16A/	.	(16g/LL	-le	.
.	16F/JJ	.	16a/JJ)	.	.
=10	=10	=10	=10	=10	=10
(4BB-/	16dLL 16B-/	.	(16b-/LL	mio-	.
.	16F/	.	16a/JJ)	.	.
.	16f 16d/	.	(16b-\LL	-dek	.
.	16B-/JJ	.	16cc\JJ)	.	.
4GG/)	16gLL 16d/	.	8dd\	zło-	.
.	16B-/	.	.	.	.
.	16g 16d/	.	(16cc\LL	-ty,	.
.	16B-/JJ)	.	16b-,\JJ)	.	.
!!LO:LB:g=original
=11	=11	=11	=11	=11	=11
2C/	(16fLL 16c/	.	(16a/LL	Bę-	.
.	16A/	.	16bn/JJ)	.	.
.	16f 16c/	.	8cc\	-dziem	.
.	16A/JJ	.	.	.	.
.	16fLL 16Bn/	.	(16g/LL	go	.
.	16G/	.	16b/JJ)	.	.
.	16en 16B-X/	.	8cc\	jeść	.
.	16G/JJ	.	.	.	.
=12	=12	=12	=12	=12	=12
[4FF/	16fLL 16A/	.	4a/	z chle-	.
.	16c/	.	.	.	.
.	16A/	.	.	.	.
.	16c/JJ	.	.	.	.
8FF/]	16A/LL	.	8f/	-bem.	.
.	16c/	.	.	.	.
8r	16f/	.	8r	.	.
.	16en/JJ)	.	.	.	.
=13	=13	=13	=13	=13	=13
2FF/	(16gLL 16e-X/	.	(16g/LL	A	.
.	16B-/	.	16a/JJ)	.	<
.	16g 16e-/	.	8g/	wy	.
.	16B-/JJ	.	.	.	.
.	16gLL 16e-/	.	8ee-\	pszczół-	.
.	16B-/	.	.	.	[
.	16g 16e-/	.	8ee-\	-ki,	.
.	16B-/JJ)	.	.	.	.
!!LO:LB:g=original
=14	=14	=14	=14	=14	=14
2F\	(16fLL 16e-/	.	8ee-\	pra-	.
.	16A/	.	.	.	.
.	16f 16e-/	.	(16cc\LL	-co-	.
.	16A/JJ	.	16b-\JJ)	.	.
.	16fLL 16e-/	.	(16a/LL	-wi-	.
.	16A/	.	16g/JJ)	.	.
.	16f 16e-/	.	8f,/	-te	.
.	16A/JJ)	.	.	.	.
=15	=15	=15	=15	=15	=15
2FF/	(16gLL 16e-/	.	(16g/LL	Ro-	.
.	16B-/	.	16a/JJ)	.	.
.	16g 16e-/	.	8g/	-bo-	.
.	16B-/JJ	.	.	.	.
.	16gLL 16e-/	.	8ee-\	-tnicz-	.
.	16B-/	.	.	.	.
.	16g 16e-/	.	8ee-\	-ki	.
.	16B-/JJ	.	.	.	.
=16	=16	=16	=16	=16	=16
4FF/	16aLL 16e-/	.	4ee-\	bo-	.
.	16c/	.	.	.	.
.	16a 16e-/	.	.	.	.
.	16c/JJ	.	.	.	.
4FF#X/	16aLL 16d/	.	8dd,\	-że,	.
.	16c/	.	.	.	.
.	16a 16d/	.	8a/	Zbie-	.
.	16c/JJ)	.	.	.	.
=17	=17	=17	=17	=17	=17
2GG/	(16aLL 16d/	.	4cc\	-ra-	.
.	16B-/	.	.	.	.
.	16a 16d/	.	.	.	.
.	16B-/JJ	.	.	.	.
.	16gLL 16d/	.	8b-/	-cie	.
.	16B-/	.	.	.	.
.	16f 16d/	.	8a/	wy	.
.	16B-/JJ)	.	.	.	.
!!LO:PB:g=original
=18	=18	=18	=18	=18	=18
2C/	(16enLL 16c/	.	8g/	mio-	.
.	16B-/	.	.	.	.
.	16e 16c/	.	8f#X/	-dy	.
.	16B-/JJ	.	.	.	.
.	16eLL 16c/	.	8a/	z kwia-	.
.	16B-/	.	.	.	.
.	16e 16c/	.	8g,/	-tów,	.
.	16B-/JJ)	.	.	.	.
=19	=19	=19	=19	=19	=19
2CC/	(16fLL 16c/	.	8fn/	Le-	.
.	16A/	.	.	.	.
.	16en 16c/	.	(16en/LL	-dwo	.
.	16d/JJ	.	16f/JJ)	.	.
.	16eLL 16B-/	.	8b-/	bły-	.
.	16d/	.	.	.	.
.	16e 16c/	.	(16a/LL	-sną	.
.	16B-/JJ	.	16g/JJ)	.	.
=20	=20	=20	=20	=20	=20
4FF/	16fLL 16A/	.	4f/	zo-	.
.	16c/	.	.	.	.
.	16d/	>	.	.	.
.	16c/JJ	.	.	.	.
4r	16f/LL	.	8f/	-rze.	.
.	16e-X/	.	.	.	.
.	16d/	.	8r	.	.
.	16c/JJ)	]	.	.	.
=21	=21	=21	=21	=21	=21
*^	*	*	*	*	*
!	!	!	!LO:DY:rj	!	!	!
(2D/	[2BB-\	(16B-/LL	pp	2r	.	.
.	.	16A/	.	.	.	.
.	.	16B-/	.	.	.	.
.	.	16Bn/JJ	.	.	.	.
.	.	16B-X/LL	.	.	.	.
.	.	16A/	.	.	.	.
.	.	16B-/	.	.	.	.
.	.	16Bn/JJ)	.	.	.	.
!!LO:LB:g=original
=22	=22	=22	=22	=22	=22	=22
2E-/)	2BB-\]	(16c/LL	.	2r	.	.
.	.	16Bn/	.	.	.	.
.	.	16c/	.	.	.	.
.	.	16c#X/JJ	.	.	.	.
.	.	16d/LL	.	.	.	.
.	.	16c#/	.	.	.	.
.	.	16cn/	.	.	.	.
.	.	16B/JJ	.	.	.	.
=23	=23	=23	=23	=23	=23	=23
(2D/	[2BB-\	16B-X/LL	.	2r	.	.
.	.	16A/	.	.	.	.
.	.	16B-/	.	.	.	.
.	.	16Bn/JJ	.	.	.	.
.	.	16B-X/LL	.	.	.	.
.	.	16A/	.	.	.	.
.	.	16B-/	.	.	.	.
.	.	16Bn/JJ	.	.	.	.
=24	=24	=24	=24	=24	=24	=24
4E-/)	4BB-\]	16c/LL	.	2r	.	.
.	.	16Bn/	.	.	.	.
.	.	16c/	<	.	.	.
.	.	16c#X/JJ	.	.	.	.
4r	4ryy	16d/LL	.	.	.	.
.	.	16c#/	.	.	.	.
.	.	16d/	[	.	.	.
.	.	16e-/JJ)	.	.	.	.
*v	*v	*	*	*	*	*
!!LO:LB:g=original
=25	=25	=25	=25	=25	=25
!	!	!LO:DY:rj	!	!	!LO:DY:rj
[2BB-/	(16fLL 16d/	p	(16f/LL	A	p
.	16B-X/	.	16g/JJ)	.	.
.	16f 16d/	.	(16f/LL	wy	.
.	16B-/JJ	.	16g/JJ)	.	.
.	16fLL 16e-/	.	(16f/LL	pszczół-	.
.	16A/	.	16g/JJ)	.	.
.	16f 16e-/	.	(16f/LL	-ki,	.
.	16A/JJ	.	16g/JJ)	.	.
=26	=26	=26	=26	=26	=26
2BB-/]	16fLL 16d/	.	8f/	ro-	.
.	16B-/	.	.	.	.
.	16f 16d/	.	8dd\	-bo-	.
.	16B-/JJ	.	.	.	.
.	16fLL 16d/	.	(16ee-\LL	-tnicz-	.
.	16B-/	.	16dd\JJ)	.	.
.	16f 16d/	.	(16cc\LL	-ki,	.
.	16B-/JJ)	.	16b-\JJ)	.	.
=27	=27	=27	=27	=27	=27
[2BB-/	(16gLL 16e-/	.	8g/	Chciał-	.
.	16B-/	.	.	.	.
.	16g 16e-/	.	(16g/LL	-bym	.
.	16B-/JJ	.	16a/JJ)	.	.
.	16gLL 16e-/	.	8b-\	ja	.
.	16B-/	.	.	.	.
.	16g 16e-/	.	(16cc\LL	wam	.
.	16B-/JJ	.	16dd\JJ)	.	.
=28	=28	=28	=28	=28	=28
2BB-/]	16gLL 16e-/	.	4cc\	spro-	.
.	16B-/	.	.	.	.
.	16g 16e-/	.	.	.	.
.	16B-/JJ	.	.	.	.
.	16gLL 16e-/	.	8g/	-stać,	.
.	16B-/	.	.	.	.
.	16g 16e-/	.	8r	.	.
.	16B-/JJ)	.	.	.	.
!!LO:PB:g=original
=29	=29	=29	=29	=29	=29
(4.C/	(16fLL 16e-/	.	(16b-/LL	Ra-	.
.	16A/	.	16a/JJ)	.	.
.	16f 16e-/	.	(16g/LL	-no	.
.	16A/JJ	.	16f/JJ)	.	.
.	16e-LL 16A/	.	(16en/LL	wsta-	.
.	16F/	.	16f/JJ)	.	.
8FF/)	16e- 16A/	.	(16g/LL	-wać	.
.	16F/JJ)	.	16a/JJ)	.	.
=30	=30	=30	=30	=30	=30
(4BB-/	(16dLL 16B-/	.	(16b-/LL	i	.
.	16F/	.	16a/JJ)	.	.
.	16f 16d/	.	(16b-\LL	pra-	.
.	16B-/JJ	.	16cc\JJ)	.	.
4BBB-/)	16b-LL 16f/	.	8dd\	-co-	.
.	16B-/	.	.	.	.
.	16b- 16f/	.	(16cc\LL	-wać,	.
.	16B-/JJ)	.	16b-\JJ)	.	.
=31	=31	=31	=31	=31	=31
(8EE-/L	(16gLL 16e-/	.	(16g/LL	By-	.
.	16B-/	.	16a/JJ)	.	.
8CC/J	16g 16e-/	.	8b-/	-le	.
.	16B-/JJ	.	.	.	.
4FF/)	16fLL 16e-/	.	(16a/LL	mio-	.
.	16A/	.	16b-/JJ)	.	.
.	16f 16e-/	.	8cc\	-du	.
.	16A/JJ)	.	.	.	.
=32	=32	=32	=32	=32	=32
4BB-/	(16fLL 16e-/	.	4cc\	do-	.
.	16A/	.	.	.	.
.	16f 16e-/	.	.	.	.
.	16A/JJ	.	.	.	.
8F 8BB-/	8f 8d/)	.	8b-\	-stać!	.
8r	8r	.	8r	.	.
==	==	==	==	==	==
*-	*-	*-	*-	*-	*-
!!!system-decoration: p1{p2}
!!!RDF**kern: > = above
!!!RDF**kern: < = below
!!!ENC: Andrzej Gręziak
!!!END: 2025-03-06
!!!ENC: Marta Lawrence
!!!END: 2025-03-22
